X:974
T:Maggie Brown's favourite
T:Planxty Browne
R:Jig
O:Ireland or Scotland
C:Turlough Carolan or Nathaniel Gow
B:The Gow Collection
B:The Complete Works of O'Carolan 180
B:O'Neill's 692
B:Kerr's Second p33
S:Kerr's Second
Z:Transcription, chords:Mike Long
M:6/8
L:1/8
K:G
g|\
"G"dBG GAB|"C"E2E E2c|"D"AFD DEF|"G"G2G G2g|\
"G"dBG GAB|"C"E2E E2c|"D"AFD DEF|"G"G3 G2:|
|:g/a/|\
"G"bgb "D"afd|"C"efg gfe|"G"dBg dBG|"D"AFD Dga|\
"G"bgb "D"afd|"C"efg gfe|"D"faf "A"ge^c|"D"d2d de=f||
"C"(ec)e "G"(dB)d|"Am"(ca)c "G"(Bg)B|"Am"Ace "G"dBG|"D"FAF DEF|\
"G"GAB "C"EFG|"Am"ABc "D"def|"G"(gd)B "D"(cA)F|"G"G3 G2:|
